assets/img/braze_icons/flag-03.svg

<svg fill="none" height="24" viewBox="0 0 24 24" width="24" xmlns="http://www.w3.org/2000/svg"><path d="m21.0047 2.29095c-.291-.21364-.6072-.25791-.7895-.27463-.1789-.01642-.3931-.01636-.5951-.01631h-15.61537c-.00158-.00001-.00315-.00001-.00473-.00001-.55228 0-1 .44772-1 1v18c0 .5523.44772 1 1 1 .55229 0 1-.4477 1-1v-7h14.6201c.202.0001.4162.0001.5951-.0163.1823-.0167.4985-.061.7895-.2746.3455-.2537.5659-.6431.6057-1.0699.0335-.3594-.0912-.6533-.1707-.8183-.0779-.1618-.1882-.3455-.2921-.5186l-1.9814-3.30229 1.9813-3.30219c.104-.17319.2143-.35689.2922-.51875.0795-.16492.2042-.45887.1707-.81828-.0398-.42678-.2602-.81615-.6057-1.06984z" fill="#801ed7"/></svg>

<svg width="24" height="24" viewBox="0 0 24 24" fill="none" xmlns="http://www.w3.org/2000/svg">
<path d="M21.0047 2.29095C20.7137 2.07731 20.3975 2.03304 20.2152 2.01632C20.0363 1.9999 19.8221 1.99996 19.6201 2.00001L4.00473 2.00001C4.00315 2 4.00158 2 4 2C3.44772 2 3 2.44772 3 3V21C3 21.5523 3.44772 22 4 22C4.55229 22 5 21.5523 5 21L5 14L19.6201 14C19.8221 14.0001 20.0363 14.0001 20.2152 13.9837C20.3975 13.967 20.7137 13.9227 21.0047 13.7091C21.3502 13.4554 21.5706 13.066 21.6104 12.6392C21.6439 12.2798 21.5192 11.9859 21.4397 11.8209C21.3618 11.6591 21.2515 11.4754 21.1476 11.3023L19.1662 8.00001L21.1475 4.69782C21.2515 4.52463 21.3618 4.34093 21.4397 4.17907C21.5192 4.01415 21.6439 3.7202 21.6104 3.36079C21.5706 2.93401 21.3502 2.54464 21.0047 2.29095Z" fill="#801ED7"/>
</svg>
